X:439
T:Rudolph the Red Nose Reindeer
C:Johnny Marks
M:4/4
L:1/8
K:D
A B2 A F2 d2 | B2 A6 | ABAB A2 d2 | c6 A2 | 
G A2 G E2 c2 | B2 A6 | ABAB A2 B2 | F8 | 
A B2 A F2 d2 | B2 A6 | ABAB A2 d2 | c6 A2 | 
G A2 G E2 c2 | B2 A6 | ABAB A2 e2 | d8 || 
B2 B2 d2 B2 | A2 F2 A4 | G2 B2 A2 G2 | F8 | 
E2 F2 A2 B2 | c2 c2 c4 | d2 d2 c2 B2 | A2 G2 E4 | 
A B2 A F2 d2 | B2 A6 | ABAB A2 d2 | c6 A2 | 
G A2 G E2 c2 | B2 A6 | ABAB A2 e2 | d8 || 

